icons/vuejs.svg

<svg width="24" height="24" viewBox="0 0 24 24" fill="none" xmlns="http://www.w3.org/2000/svg">
<path fill-rule="evenodd" clip-rule="evenodd" d="M6.01808 2.12397C6.502 1.85781 7.11006 2.03435 7.37621 2.51827L12 10.9251L16.6238 2.51827C16.8899 2.03435 17.498 1.85781 17.9819 2.12397C18.4658 2.39013 18.6424 2.99818 18.3762 3.4821L12.8762 13.4821C12.7005 13.8017 12.3647 14.0002 12 14.0002C11.6353 14.0002 11.2995 13.8017 11.1238 13.4821L5.62378 3.4821C5.35763 2.99818 5.53416 2.39013 6.01808 2.12397ZM1.51436 2.12603C1.99714 1.85782 2.60594 2.03176 2.87416 2.51454L12 18.9411L21.1258 2.51454C21.3941 2.03176 22.0029 1.85782 22.4856 2.12603C22.9684 2.39424 23.1424 3.00305 22.8742 3.48583L12.8742 21.4858C12.6978 21.8033 12.3632 22.0002 12 22.0002C11.6368 22.0002 11.3022 21.8033 11.1258 21.4858L1.12584 3.48583C0.857629 3.00305 1.03157 2.39424 1.51436 2.12603Z" fill="black"/>
</svg>

<svg
  width="24"
  height="24"
  viewBox="0 0 24 24"
  xmlns="http://www.w3.org/2000/svg"
>
  <path
    fill-rule="evenodd"
    clip-rule="evenodd"
    d="M6.018 2.124a1 1 0 0 1 1.358.394L12 10.925l4.624-8.407a1 1 0 1 1 1.752.964l-5.5 10a1 1 0 0 1-1.752 0l-5.5-10a1 1 0 0 1 .394-1.358zm-4.504.002a1 1 0 0 1 1.36.389L12 18.94l9.126-16.426a1 1 0 0 1 1.748.97l-10 18a1 1 0 0 1-1.748 0l-10-18a1 1 0 0 1 .388-1.359z"
  />
</svg>
